Catalina-dark/actions/22/edit-guides.svg

<svg xmlns="http://www.w3.org/2000/svg" viewBox="0 0 22 22">
  <defs id="defs3051">
    <style type="text/css" id="current-color-scheme">
      .ColorScheme-Text {
        color:#f2f2f2
      }
      </style>
  </defs>
 <path 
     style="fill:currentColor;fill-opacity:1;stroke:none"      
	 class="ColorScheme-Text"
     d="M 3.2480469 3 C 3.0470869 2.99993 2.8828125 3.1626213 2.8828125 3.3632812 L 2.8828125 7.3867188 C 2.8828125 7.5873787 3.0473469 7.7519531 3.2480469 7.7519531 L 3.4179688 7.7519531 L 3.4179688 8.3085938 C 3.4179688 8.4017938 3.4892638 8.46875 3.5898438 8.46875 C 3.5928437 8.46875 3.5937031 8.4668769 3.5957031 8.4667969 L 4.6855469 8.4667969 C 4.7217469 8.4667969 4.7519531 8.4970031 4.7519531 8.5332031 L 4.7519531 9.0019531 C 4.7519531 9.0381531 4.7217469 9.0683594 4.6855469 9.0683594 L 3.6191406 9.0683594 C 3.5417406 9.0683594 3.4960131 9.0976469 3.4707031 9.1230469 C 3.4208031 9.1730469 3.4179688 9.2362769 3.4179688 9.2480469 L 3.4179688 10.494141 C 3.4179287 10.504941 3.4201438 10.560799 3.4648438 10.605469 C 3.4870437 10.627769 3.52729 10.654297 3.59375 10.654297 L 4.0996094 10.654297 C 4.1358094 10.654297 4.1640625 10.68255 4.1640625 10.71875 L 4.1640625 11.189453 C 4.1640625 11.225653 4.1358094 11.253906 4.0996094 11.253906 L 3.6230469 11.253906 C 3.5428469 11.253906 3.4964631 11.284747 3.4707031 11.310547 C 3.4215031 11.359847 3.4179688 11.420201 3.4179688 11.431641 L 3.4179688 12.677734 C 3.4179188 12.688034 3.4202437 12.740616 3.4648438 12.785156 C 3.4892438 12.809656 3.5354812 12.839844 3.6132812 12.839844 L 4.6855469 12.839844 C 4.7217469 12.839844 4.7519531 12.87005 4.7519531 12.90625 L 4.7519531 13.375 C 4.7519531 13.4112 4.7217469 13.439453 4.6855469 13.439453 L 3.609375 13.439453 C 3.532675 13.439453 3.4868706 13.468088 3.4628906 13.492188 C 3.4196906 13.535488 3.4178688 13.587996 3.4179688 13.597656 L 3.4179688 14.851562 C 3.4179287 14.864862 3.41975 14.933662 3.46875 14.982422 C 3.49755 15.011222 3.5366981 15.025391 3.5800781 15.025391 L 4.0996094 15.025391 C 4.1358094 15.025391 4.1640625 15.055597 4.1640625 15.091797 L 4.1640625 15.560547 C 4.1640625 15.596747 4.1358094 15.626953 4.0996094 15.626953 L 3.6015625 15.626953 C 3.4671525 15.626953 3.4179688 15.71868 3.4179688 15.78125 L 3.4179688 17.033203 C 3.4169988 17.053703 3.4170075 17.122832 3.4609375 17.169922 C 3.4857375 17.196522 3.5209938 17.210938 3.5585938 17.210938 L 4.6855469 17.210938 C 4.7217469 17.210938 4.7519531 17.241144 4.7519531 17.277344 L 4.7519531 17.746094 C 4.7519531 17.782294 4.7217469 17.8125 4.6855469 17.8125 L 3.6230469 17.8125 C 3.4725369 17.8125 3.4179688 17.932632 3.4179688 18.013672 L 3.4179688 18.625 C 3.4179688 18.83128 3.5866987 19 3.7929688 19 L 6.5371094 19 C 6.7433894 19 6.9101562 18.83128 6.9101562 18.625 L 6.9101562 7.3867188 L 6.9101562 7.1972656 L 18.742188 7.1972656 C 18.948458 7.1972656 19.117188 7.0285456 19.117188 6.8222656 L 19.117188 4.078125 C 19.117188 3.871885 18.948418 3.7050781 18.742188 3.7050781 L 18.509766 3.7050781 C 18.416466 3.7050781 18.322266 3.7624369 18.322266 3.8730469 L 18.322266 4.9726562 C 18.322266 5.0088563 18.294112 5.0371094 18.257812 5.0371094 L 17.787109 5.0371094 C 17.750809 5.0371094 17.722656 5.0088563 17.722656 4.9726562 L 17.722656 3.9101562 C 17.722656 3.8435563 17.703516 3.7893631 17.666016 3.7519531 C 17.620016 3.7060531 17.565517 3.7050781 17.554688 3.7050781 L 16.318359 3.7050781 C 16.245159 3.7050781 16.136719 3.7559875 16.136719 3.8984375 L 16.136719 4.3847656 C 16.136719 4.4209656 16.106513 4.4511719 16.070312 4.4511719 L 15.601562 4.4511719 C 15.565362 4.4511719 15.537109 4.4209656 15.537109 4.3847656 L 15.537109 3.8847656 L 15.535156 3.8808594 C 15.531156 3.8103594 15.483025 3.7050781 15.359375 3.7050781 L 14.109375 3.7050781 C 14.051375 3.7050781 14.016074 3.7303531 13.996094 3.7519531 C 13.951794 3.7995531 13.950372 3.8632425 13.951172 3.8828125 L 13.951172 4.9726562 C 13.951172 5.0088563 13.920966 5.0390625 13.884766 5.0390625 L 13.416016 5.0390625 C 13.379816 5.0390625 13.349609 5.0088563 13.349609 4.9726562 L 13.349609 3.90625 C 13.349609 3.82885 13.320322 3.7831225 13.294922 3.7578125 C 13.245222 3.7082125 13.184055 3.7050781 13.171875 3.7050781 L 13.169922 3.7050781 L 11.923828 3.7050781 C 11.861928 3.7050781 11.765625 3.7528294 11.765625 3.8808594 L 11.765625 4.3847656 C 11.765625 4.4209656 11.735419 4.4511719 11.699219 4.4511719 L 11.230469 4.4511719 C 11.194269 4.4511719 11.164062 4.4209656 11.164062 4.3847656 L 11.164062 3.9101562 C 11.164062 3.8298563 11.133222 3.7816194 11.107422 3.7558594 C 11.058422 3.7068594 10.998138 3.7050781 10.986328 3.7050781 L 9.7402344 3.7050781 C 9.6752344 3.7050781 9.578125 3.7559875 9.578125 3.8984375 L 9.578125 4.9726562 C 9.578125 5.0088563 9.5498719 5.0390625 9.5136719 5.0390625 L 9.0449219 5.0390625 C 9.0087219 5.0390625 8.9785156 5.0088563 8.9785156 4.9726562 L 8.9785156 3.8945312 C 8.9785156 3.8178313 8.9497813 3.77398 8.9257812 3.75 C 8.8827812 3.7071 8.8305125 3.7050781 8.8203125 3.7050781 L 7.5664062 3.7050781 C 7.4796063 3.7050781 7.3925781 3.7594444 7.3925781 3.8652344 L 7.3925781 4.3847656 C 7.3925781 4.4209656 7.3623719 4.4511719 7.3261719 4.4511719 L 6.9121094 4.4511719 L 6.9121094 3.6757812 L 6.9121094 3.3632812 C 6.9121094 3.1626213 6.747575 3 6.546875 3 L 3.2480469 3 z "
     />
</svg>

<svg viewBox="0 0 22 22" xmlns="http://www.w3.org/2000/svg">
<defs>
<style id="current-color-scheme" type="text/css">.ColorScheme-Text {
        color:#f2f2f2
      }</style>
</defs>
<path class="ColorScheme-Text" d="m3.248 3c-0.20096-7e-5 -0.36523 0.16262-0.36523 0.36328v4.0234c0 0.20066 0.16453 0.36523 0.36523 0.36523h0.16992v0.55664c0 0.0932 0.071295 0.16016 0.17188 0.16016 0.0029999 0 0.0038593-0.0018731 0.0058593-0.0019531h1.0898c0.0362 0 0.066406 0.030206 0.066406 0.066406v0.46875c0 0.0362-0.030206 0.066406-0.066406 0.066406h-1.0664c-0.0774 0-0.12313 0.029288-0.14844 0.054688-0.0499 0.05-0.052734 0.11323-0.052734 0.125v1.2461c-4.01e-5 0.0108 0.002175 0.066658 0.046875 0.11133 0.0222 0.0223 0.062446 0.048828 0.12891 0.048828h0.50586c0.0362 0 0.064453 0.028253 0.064453 0.064453v0.4707c0 0.0362-0.028253 0.064453-0.064453 0.064453h-0.47656c-0.0802 0-0.12658 0.030841-0.15234 0.056641-0.0492 0.0493-0.052734 0.10965-0.052734 0.12109v1.2461c-5e-5 0.0103 0.0022749 0.062882 0.046875 0.10742 0.0244 0.0245 0.070637 0.054688 0.14844 0.054688h1.0723c0.0362 0 0.066406 0.030206 0.066406 0.066406v0.46875c0 0.0362-0.030206 0.064453-0.066406 0.064453h-1.0762c-0.0767 0-0.1225 0.028635-0.14648 0.052735-0.0432 0.0433-0.045022 0.095808-0.044922 0.10547v1.2539c-4.01e-5 0.0133 0.0017812 0.0821 0.050781 0.13086 0.0288 0.0288 0.067948 0.042969 0.11133 0.042969h0.51953c0.0362 0 0.064453 0.030206 0.064453 0.066406v0.46875c0 0.0362-0.028253 0.066406-0.064453 0.066406h-0.49805c-0.13441 0-0.18359 0.091727-0.18359 0.1543v1.252c-9.7e-4 0.0205-9.613e-4 0.089629 0.042969 0.13672 0.0248 0.0266 0.060056 0.041016 0.097656 0.041016h1.127c0.0362 0 0.066406 0.030206 0.066406 0.066406v0.46875c0 0.0362-0.030206 0.066406-0.066406 0.066406h-1.0625c-0.15051 0-0.20508 0.12013-0.20508 0.20117v0.61133c0 0.20628 0.16873 0.375 0.375 0.375h2.7441c0.20628 0 0.37305-0.16872 0.37305-0.375v-11.427h11.832c0.20627 0 0.375-0.16872 0.375-0.375v-2.7441c0-0.20624-0.16877-0.37305-0.375-0.37305h-0.23242c-0.0933 0-0.1875 0.057359-0.1875 0.16797v1.0996c0 0.0362-0.028154 0.064453-0.064454 0.064453h-0.4707c-0.0363 0-0.064453-0.028253-0.064453-0.064453v-1.0625c0-0.0666-0.01914-0.12079-0.05664-0.1582-0.046-0.0459-0.1005-0.046875-0.11133-0.046875h-1.2363c-0.0732 0-0.18164 0.050909-0.18164 0.19336v0.48633c0 0.0362-0.030206 0.066406-0.066407 0.066406h-0.46875c-0.0362 0-0.064453-0.030206-0.064453-0.066406v-0.5l-0.001953-0.0039062c-4e-3 -0.0705-0.052131-0.17578-0.17578-0.17578h-1.25c-0.058 0-0.093301 0.025275-0.11328 0.046875-0.0443 0.0476-0.045722 0.11129-0.044922 0.13086v1.0898c0 0.0362-0.030206 0.066406-0.066406 0.066406h-0.46875c-0.0362 0-0.066407-0.030206-0.066407-0.066406v-1.0664c0-0.0774-0.029287-0.12313-0.054687-0.14844-0.0497-0.0496-0.11087-0.052734-0.12305-0.052734h-1.2481c-0.0619 0-0.1582 0.047751-0.1582 0.17578v0.50391c0 0.0362-0.030206 0.066406-0.066406 0.066406h-0.46875c-0.0362 0-0.066407-0.030206-0.066407-0.066406v-0.47461c0-0.0803-0.03084-0.12854-0.05664-0.1543-0.049-0.049-0.10928-0.050781-0.12109-0.050781h-1.2461c-0.065 0-0.16211 0.050909-0.16211 0.19336v1.0742c0 0.0362-0.028253 0.066406-0.064453 0.066406h-0.46875c-0.0362 0-0.066406-0.030206-0.066406-0.066406v-1.0781c0-0.0767-0.028734-0.12055-0.052734-0.14453-0.043-0.0429-0.095269-0.044922-0.10547-0.044922h-1.2539c-0.0868 0-0.17383 0.054366-0.17383 0.16016v0.51953c0 0.0362-0.030206 0.066406-0.066406 0.066406h-0.41406v-1.0879c0-0.20066-0.16453-0.36328-0.36523-0.36328h-3.2988z" fill="currentColor"/>
</svg>
